X:1
T:Stay, Corydon, thou swain - Wilbye
T:#
%%score 1 2 3 { 4 | 5 }
L:1/8
Q:1/4=180
M:4/4
K:F
V:1 treble nm="Soprano I"
V:2 treble nm="Soprano II"
V:3 treble nm="Alto" snm="A"
V:4 treble-8 nm="Tenor I"
V:5 treble-8 
V:1
"^Stay, Corydon, thou swain""^John Wilbye\n (1574-1638)" z8 |!p! c8- | c4 A2 B2 | c8- | c4 A4 | %5
w: |Stay,|* Co- ry-|don,|* thou|
 B4 A2 A2- | A2 G2 G4- |[M:4/4] G2 F2 (F4- | F4 E4) | F8 | z8 | z8 | z8 | z8 | z8 | z8 | z8 | %17
w: swain, Talk not|* so soon|* of dy\-||ing:||||||||
 z4 c4- | c4 A2 B2 | c6 d2 | e4 z4 | z8 | f8- | f4 d2 e2 | f4 c4 | c8 | z8 | z8 | z8 | z8 | d8- | %31
w: What|* though thy|heart be|slain,||what|* though thy|heart be|slain,|||||What|
 d4 c2 B2 | c6 d2 | (edef g4- | g2) c2 z4 | z8 | z4 z2!f! g2 | e2 c2 g2 G2 | A2 A2 G4 | %39
w: * though thy|love be|fly\- * * * *|* ing?||She|threat- ens thee, but|dares not strike,|
 z2 G2 G2 G2 | G2 D2 E2 E2 | F4 z2 c2 | c2 c2 c2 G2 | A2 A2 B4 | z8 | z2 g2 g2 g2 | (gfed ef) g2 | %47
w: she threat- ens|thee, but dares not|strike, she|threat- ens thee, but|dares not strike;||Thy nymph is|light * * * * * and|
 f2 c2 c4 | z2 f2 f2 f2 | (f_edc de) f2 | =e4 d4 | c2!p! c2 c2 c2 | (cBAG AB) c2 | B2 F2 F4 | %54
w: sha- dow- like,|thy nymph is|light * * * * * and|sha- dow-|like, thy nymph is|light * * * * * and|sha- dow- like,|
 z2 F2 D2 d2 | c2 A2 G2 G2 | F2 F2 (FG) (AB) | c2 F2 (FG) (AB) | c4 z4 | z2 c2 (cd) (ef) | %60
w: thy nymph is|light and sha- dow-|like, thy nymph * is *|light and sha\- * dow\- *|like,|thy nymph * is *|
 g2 c2 (cd) (ef) | g8 | z2!f! c2 f3 _e | d3 c B2 B2 | _e3 d c3 B | A3 G (FGAF | GFGA G2) F2 | E8 | %68
w: light and sha\- * dow\- *|like;|For if thou|fol- low her, for|of thou fol- low|her, she'll fly * * *|* * * * * from|thee,|
 G2 c3 B A2- | AG F2 F2 B2- | BA G3 F E2- | ED (EF G2) G2 | G4 z4 | z8 | z2!p! c2 c2 d2 | %75
w: for if thou fol\-|* low her, for if|* thou fol- low her,|* she'll fly * * from|thee;||But if thou|
 (cBAB c2) B2 | A2 F2 (cBAG | AGF)E F2 F2- | F2 B4 A2 | G4 z4 | z8 | z8 | z2!f! e2 e3 f | %83
w: fly * * * * from|her, she'll fol\- * * *|* * * low thee, she'll|* fol- low|thee,|||she'll fol- low|
 g2 g2 d3 e | f2!p! f2 c3 d | e2 f2 f2 e2 | f8 |!f! c2 f3 _e d2- | dc B2 B2 _e2- | ed c3 B A2- | %90
w: thee, she'll fol- low|thee, she'll fol- low|thee, she'll fol- low|thee.|For if thou fol\-|* low her, for if|* thou fol- low her,|
 AG (AB c2) c2 | c6 A2 | c8 | z8 | z8 | z8 | z8 | z2!p! G2 G2 G2 | (GFEF G2) G2 | F4 z2 f2 | %100
w: * she'll fly * * from|thee, from|thee;|||||But if thou|fly * * * * from|her, but|
 f2 f2 (fede | f6) g2 | f2 f2 (f_edc | dcBA G2) F2 | E2 G2 G2 G2 | (GFEF G2) A2 | G4 G2 (FG | %107
w: if thou fly * * *|* from|her, she'll fol\- * * *|* * * * * low|thee, But if thou|fly * * * * from|her, she'll fol\- *|
 AB c2) c2 G2- | GA B2 B2 F2- | FG A3 B c2- | c2 c2 c4- | c4 c4 | c16 |] %113
w: * * * low thee,|* she'll fol- low thee,|* she'll fol- low thee,|* she'll fol\-|* low|thee.|
V:2
 z8 | z8 | z4!p! f4- | f4 e2 d2 | e4 c4 | f6 e2 | d2 B2 d4- |[M:4/4] d4 c4 | B8 | A8 | z8 | z8 | %12
w: ||Stay,|* Co- ry-|don, thou|swain, Talk|not so soon|* of|dy-|ing:|||
 z8 | z8 | z8 | z8 | z8 | z8 | z8 | c8- | c4 B2 A2 | G4 G4 | F8- | F8 | z4 f4- | f4 e2 d2 | c6 d2 | %27
w: |||||||What|* though thy|heart be|slain,||what|* though thy|heart, thy|
 e6 c2 | c8- | c8 | B8- | B4 A2 G2 | A2 A2 G2 F2 | G2 G2 (c4- | c2 B2 A=B c2- | c2 =BA B4) | c8- | %37
w: heart be|slain,||What|* though thy|love, what though thy|love be fly\-|||ing?|
 c4 z4 | z2!f! f2 e2 c2 | g6 e2 | d2 d2 c4 | z8 | z8 | z2 f2 d2 B2 | f6 d2 | (cd e2) d4 | %46
w: |She threat- ens|thee, but|dares not strike,|||she threat- ens|thee, but|dares * * not|
 c2 c2 c2 c2 | (cBAG AB) c2 | B2 F2 F2 c2 | B2 B2 B4 | z2!p! g2 g2 g2 | (gfed ef) g2 | f2 c2 c4 | %53
w: strike; Thy nymph is|light * * * * * and|sha- dow- like, and|sha- dow- like,|thy nymph is|light * * * * * and|sha- dow- like,|
 z2 f2 f2 f2 | (f_edc de) f2 | =e2 (f4 e2) | f6 F2 | (FG) (AB) c2 F2 | (FG) (AB) c2 c2 | %59
w: the nymph is|light * * * * * and|sha- dow\- *|like, thy|nymph * is * light and|sha\- * dow\- * like, thy|
 (cd) (ef) g2 c2 | (cd) (ef) g4 | z8 |!f! c2 f3 _e d2- | dc B2 B2 _e2- | ed c3 B A2- | %65
w: nymph * is * light and|sha\- * dow\- * like;||For if thou fol\-|* low her, for if|* thou fol- low her,|
 AG (AB c2) c2 | c6 A2 | c8 | z8 | z8 | z8 | z8 | z2!p! G2 G2 G2 | (GFEF G2) G2 | F4 z2 f2 | %75
w: * she'll fly * * from|thee, from|thee;|||||But if thou|fly * * * * from|her, but|
 f2 f2 (fede | f6) g2 | f2 f2 (f_edc | dcBA G2) F2 | E2 G2 G2 G2 | (GFEF G2) A2 | G4 G2 (FG | %82
w: if thou fly * * *|* from|her, she'll fol\- * * *|* * * * * low|thee, But if thou|fly * * * * from|her, she'll fol\- *|
 AB c2) c2 G2- | GA B2 B2 F2- | F!p!G A3 B c2- | c2 c2 c2 c2 | c4 z4 | z2!f! c2 f3 _e | %88
w: * * * low thee,|* she'll fol- low thee,|* she'll fol- low thee,|* she'll fol- low|thee.|For if thou|
 d3 c B2 B2 | _e3 d c3 B | A3 G (FGAF | GFGA G2) F2 | E8 | G2 c3 B A2- | AG F2 F2 B2- | %95
w: fol- low her, for|of thou fol- low|her, she'll fly * * *|* * * * * from|thee,|for if thou fol\-|* low her, for if|
 BA G3 F E2- | ED (EF G2) G2 | G4 z4 | z8 | z2!p! c2 c2 d2 | (cBAB c2) B2 | A2 F2 (cBAG | %102
w: * thou fol- low her,|* she'll fly * * from|thee;||But if thou|fly * * * * from|her, she'll fol\- * * *|
 AGF)E F2 F2- | F2 B4 A2 | G4 z4 | z8 | z8 | z2!f! e2 e3 f | g2 g2 d3 e | f2 f2 c3 d | e4 f4 | %111
w: * * * low thee, she'll|* fol- low|thee,|||she'll fol- low|thee, she'll fol- low|thee, she'll fol- low|thee, she'll|
 f4 e4 | f16 |] %113
w: fol- low|thee.|
V:3
!p! A8- | A4 G2 F2 | G4 A4 | G8- | G4 A2 F2- | F2 F2 F4- | F2 E2 D2 B,2 |[M:4/4] z4 C4 | (D4 B,4) | %9
w: Stay,|* Co- ry-|don, thou|swain,|* Talk not|* so soon|* of dy- ing,|of|dy\- *|
 C8 | z8 | z4 F4- | F4 E2 D2 | E4 C4 | F6 E2 | D2 B,2 D2 D2 | C8- | C4 C4 | z4 A4- | A4 G2 F2 | %20
w: ing:||Stay,|* Co- ry-|don, thou|swain, Talk|not so soon of|dy\-|* ing:|What|* though thy|
 G6 F2 | E6 D2 | C8 | z8 | z4 C4- | C4 A,2 B,2 | C4 z4 | G4 E2 F2 | G4 G4 | A4 F4- | F4 D2 E2 | %31
w: heart, thy|heart be|slain,||What|* though thy|heart,|what though thy|heart be|slain, what|* though thy|
 F4 C4 | C8 | z2 G2 G2 F2 | E3 D C4 | G8 | z2!f! G2 E2 C2 | c8 | z2 C4 (E2- | E2 DC D2) (EF) | %40
w: heart be|slain,|What though thy|love be fly-|ing?|She threat- ens|thee,|but dares|* * * * not *|
 G4 z2 c2 | A2 F2 c4- | c2 A2 G2 G2 | F4 z2 B,2 | D3 E F4 | z2 C2 D2 D2 | (EDEF G2) E2 | %47
w: strike, she|threat- ens thee,|* but dares not|strike, but|dares not strike;|Thy nymph is|light, * * * * is|
 F2 F2 F2 F2 | (F_EDC DE) F2 | D2 B,2 B,4 | z2!p! C2 D2 D2 | (EDEF G2) E2 | F2 F2 F2 F2 | %53
w: light, thy nymph is|light * * * * * and|sha- dow- like,|thy nymph is|light * * * * and|sha- dow- like, is|
 (F_EDC DE) F2 | D2 B,2 B2 A2 | (G2 F2) G4 | A4 z4 | z8 | z4 z2 A2 | G2 F2 E2 A2 | G2 F2 E4 | %61
w: light * * * * * and|sha- dow- like, and|sha\- * dow-|like,||thy|nymph is light and|sha- dow- like;|
 z2!f! c2 c3 B | A3 G F2 F2 | B3 A G3 F | _E2 E2 (FGAB | c2) c2 (C3 D | EDEF E2) F2 | G8 | %68
w: For if thou|fol- low her, for|if thou fol- low|her, she'll fly, * * *|* she'll fly *|* * * * * from|thee,|
 z2 G2 c3 B | A3 G F2 F2 | B3 A G3 F | E3 D (CDEC | DCDE D2) D2 | E6!p! G2 | A2 A2 (AGFG | %75
w: for if thou|fol- low her, for|if thou fol- low|her, she'll fly * * *|* * * * * from|thee; But|if thou fly * * *|
 A2) F2 A2 B2 | (cBAG AGF)E | F4 z4 | z2 B,2 C2 C2 | C4 z4 | z4 z2!f! c2 | c2 c2 (cBAB | %82
w: * from her, she'll|fol\- * * * * * * low|thee,|she'll fol- low|thee,|but|if thou fly * * *|
 c2) c2 G3 A | B2 B2 F3!p! G | A2 B2 c2 A2 | G2 F2 G4 | A2!f! c2 c3 B | A3 G F2 F2 | B3 A G3 F | %89
w: * from her, she'll|fol- low thee, she'll|fol- low thee, she'll|fol * low|thee. For if thou|fol- low her, for|if thou fol- low|
 _E2 E2 (FGAB | c2) c2 (C3 D | EDEF E2) F2 | G8 | z2 G2 c3 B | A3 G F2 F2 | B3 A G3 F | %96
w: her, she'll fly, * * *|* she'll fly *|* * * * * from|thee,|for if thou|fol- low her, for|if thou fol- low|
 E3 D (CDEC | DCDE D2) D2 | E6!p! G2 | A2 A2 (AGFG | A2) F2 A2 B2 | (cBAG AGF)E | F4 z4 | %103
w: her, she'll fly * * *|* * * * * from|thee; But|if thou fly * * *|* from her, she'll|fol\- * * * * * * low|thee,|
 z2 B,2 C2 C2 | C4 z4 | z4 z2!f! c2 | c2 c2 (cBAB | c2) c2 G3 A | B2 B2 F3 G | A2 B2 c2 A2 | %110
w: she'll fol- low|thee,|but|if thou fly * * *|* from her, she'll|fol- low thee, she'll|fol- low thee, she'll|
 (G4 F4) | G8 | A16 |] %113
w: fol\- *|low|thee.|
V:4
!p! f8- | f4 e2 d2 | e4 f4 | c8- | c4 f4 | d6 c2 | B8 |[M:4/4][K:treble-8] A8 | G8 | F4 z4 | c8- | %11
w: Stay,|* Co- ry-|don, thou|swain,|* Talk|not so|soon|of|dy-|ing:|Stay,|
 c4 A2 B2 | c8- | c4 A4 | B4 A4- | A2 G2 G4- | G2 F2 F4- | F4 E4 | F8 | z8 | z8 | z8 | z8 | d8- | %24
w: * Co- ry-|don,|* thou|swain, Talk|* not so|* soon of|* dy-|ing:|||||What|
 d4 c2 B2 | A4 A4- | A4 G2 F2 | G6 F2 | E4 E4 | F8- | F8 | z8 | z4 c4- | c4 B2 A2 | G2 G2 A4 | %35
w: * though thy|heart, what|* though thy|heart, thy|heart be|slain,|||What|* though thy|love be fly-|
 G4 z2!f! g2 | e2 c2 g4 | z2 g2 e2 c2 | f4 z2 c2 | e3 f g2 c2 | =B2 G2 c4 | z2 F2 A3 B | c6 c2 | %43
w: ing? She|threat- ens thee,|but dares not|strike, she|threat- ens thee, but|dares not strike,|she threat- ens|thee, but|
 A2 F2 B4- | B2 (AG) A2 B2 | c4 G4 | c6 c2 | (AGAB c2) A2 | (Bcd_e f2) c2 | (dcd_e f2) d2 | %50
w: dares not strike,|* but * dares not,|dares not|strike; Thy|nymph * * * * is|light, * * * * is|light * * * * and|
 (=e2 c4) =B2 | c4 z4 | z8 | z8 | z8 | z8 | z4 z2!p! d2 | c2 B2 A2 d2 | c2 B2 A4 | z2 a2 g2 f2 | %60
w: sha\- * dow-|like,|||||thy|nymph is light and|sha- dow- like,|thy nymph is|
 e2 a2 g2 f2 | e8 | z8 | z8 | z8 | z8 | z8 | z2!f! c2 g3 f | e3 d c2 c2 | f3 e d3 c | B2 B2 (cdef | %71
w: light and sha- dow-|like;||||||For if thou|fol- low her, for|if thou fol- low|her, she'll fly * * *|
 g2) g2 G3 A | (=BABc B2) B2 | c8 | z8 | z8 | z8 | z8 | z8 | z8 | z2!f! e2 e2 e2 | (edcd e2) f2 | %82
w: * from thee, she'll|fly * * * * from|thee;|||||||But if thou|fly * * * * from|
 cd e3 f g2 | g2 d3 e f2 |!p! f2 c4 f2 | e2 a2 g2 g2 | f6!f! c2 | f3 _e d3 c | B2 B2 _e3 d | %89
w: her, she'll fol- low thee,|she'll fol- low thee,|she'll fol- low|thee, she'll fol- low|thee. For|if thou fol- low|her, for if thou|
 c3 B A3 G | (FEFG A2) F2 | c6 f2 | c8 | z8 | z8 | z8 | z8 | z8 | z4 z2!p! c2 | f2 f2 (fede | %100
w: fol- low her, she'll|fly * * * * from|thee, from|thee;||||||But|if thou fly * * *|
 f6) g2 | f6 c2 | (f_edc dcBA | BAGF E2) F2 | c4 z2!f! e2 | e2 e2 (ed) (cd) | e4 z2 d2 | %107
w: * from|her, she'll|fol\- * * * * * * *|* * * * * low|thee, But|if thou fly * from *|her, she'll|
 (c3 d e2) c2 | B3 c d2 B2 | A2 F2 f4 | c8- | c8 | c16 |] %113
w: fol\- * * low|thee, she'll fol- low|thee, she'll fol-|low||thee.|
V:5
 z8 | z8 | z8 | z8 | z8 | z8 | z8 |[M:4/4][K:treble-8] z8 | z8 |!p! A8- | A4 G2 F2 | G4 A4 | G8- | %13
w: |||||||||Stay,|* Co- ry-|don, thou|swain,|
 G4 F4 | F8 | z4 G4 | (AB c4) (BA) | G2 F2 G4 | F4 f4- | f4 e2 d2 | c6 f2 | c6 B2 | A8 | B8- | %24
w: * thou|swain,|Talk|not * * so *|soon of dy-|ing: What|* though thy|heart, thy|heart be|slain,|what|
 B4 A2 G2 | F8 | c8- | c4 B2 A2 | G4 G4 | F2 f2 c2 _e2 | d2 B2 B4 | z8 | z8 | z2 e2 e2 f2 | %34
w: * though thy|heart,|what|* though thy|heart be|slain, what though thy|heart be slain,|||What though thy|
 g2 g2 (f4- | fedc d4) | c8- | c4 z2!f! c2 | A2 F2 c4- | c2 (=BA) B2 c2 | G4 z2 G2 | A6 (GF) | %42
w: love be fly\-||ing?|* She|threat- ens thee,|* but * dares not|strike, she|threat- ens *|
 G2 F2 F2 E2 | F2 f4 d2- | d2 (cB) c2 d2 | (e2 c4) =B2 | c4 z4 | F8 | B6 A2 | B6 d2 | c4 G4 | %51
w: thee, but dares not|strike, she threat\-|* ens * thee, but|dares * not|strike;|thy|nymph is|light and|sha- dow-|
 c6!p! c2 | (AGAB c2) A2 | (Bcd_e f2) c2 | (dcd_e f2) d2 | c8 | z2 d2 c2 B2 | A2 d2 c2 B2 | %58
w: like, thy|nymph * * * * is|light * * * * and|sha\- * * * * dow-|like,|thy nymph is|light and sha- dow-|
 A2 d2 c3 d | e4 z4 | z8 | z4 z2!f! c2 | f3 _e d3 c | B2 B2 _e3 d | c3 B A3 G | (FEFG A2) F2 | %66
w: like, and sha- dow-|||For|if thou fol- low|her, for if thou|fol- low her, she'll|fly * * * * from|
 c6 f2 | c8 | z8 | z8 | z8 | z8 | z8 | z4 z2!p! c2 | f2 f2 (fede | f6) g2 | f6 c2 | (f_edc dcBA | %78
w: thee, from|thee;||||||But|if thou fly * * *|* from|her, she'll|fol\- * * * * * * *|
 BAGF E2) F2 | c4 z2!f! e2 | e2 e2 (ed) (cd) | e4 z2 d2 | (c3 d e2) c2 | B3 c d2 B2 | %84
w: * * * * * low|thee, But|if thou fly * from *|her, she'll|fol\- * * low|thee, she'll fol- low|
 A2!p! F2 f2 c2 | c8- | c8 | z8 | z8 | z8 | z8 | z8 | z2!f! c2 g3 f | e3 d c2 c2 | f3 e d3 c | %95
w: thee, she'll fol- low|thee.|||||||For if thou|fol- low her, for|if thou fol- low|
 B2 B2 (cdef | g2) g2 G3 A | (=BABc B2) B2 | c8 | z8 | z8 | z8 | z8 | z8 | z8 | z2!f! e2 e2 e2 | %106
w: her, she'll fly * * *|* from thee, she'll|fly * * * * from|thee;|||||||But if thou|
 (edcd e2) f2 | cd e3 f g2 | g2 d3 e f2 | f2 c4 f2 | e4 a4 | g6 g2 | f16 |] %113
w: fly * * * * from|her, she'll fol- low thee,|she'll fol- low thee,|she'll fol- low|thee, she'll|fol- low|thee.|

